bimi.ergo.services.logo.svg

<?xml version="1.0" encoding="UTF-8" standalone="no"?>
<svg
   width="128"
   height="128"
   viewBox="0 0 128 128"
   fill="none"
   version="1.1"
   id="svg94"
   sodipodi:docname="bimi.ergo.services.logo.svg"
   inkscape:version="1.2.2 (b0a8486541, 2022-12-01)"
   xmlns:inkscape="http://www.inkscape.org/namespaces/inkscape"
   xmlns:sodipodi="http://sodipodi.sourceforge.net/DTD/sodipodi-0.dtd"
   xmlns="http://www.w3.org/2000/svg"
   xmlns:svg="http://www.w3.org/2000/svg">
  <g
     id="g361"
     transform="matrix(2.4226774,0,0,2.4226774,0.10515516,0.697618)">
    <ellipse
       cx="26.373602"
       cy="25.689541"
       rx="24.1758"
       ry="23.931299"
       fill="url(#paint0_linear)"
       id="ellipse10"
       style="fill:url(#paint0_linear)" />
    <g
       filter="url(#filter0_d)"
       id="g14"
       transform="translate(-0.80219799,-0.241758)">
      <path
         fill-rule="evenodd"
         clip-rule="evenodd"
         d="m 27.1758,48.5863 c 12.6399,0 22.8865,-10.143 22.8865,-22.655 0,-12.512 -10.2466,-22.65496 -22.8865,-22.65496 -12.6398,0 -22.88642,10.14296 -22.88642,22.65496 0,12.512 10.24662,22.655 22.88642,22.655 z m 0,1.2763 c 13.352,0 24.1759,-10.7144 24.1759,-23.9313 C 51.3517,12.7144 40.5278,2 27.1758,2 13.8239,2 3,12.7144 3,25.9313 3,39.1482 13.8239,49.8626 27.1758,49.8626 Z"
         fill="#ffffff"
         id="path12" />
    </g>
    <g
       filter="url(#filter1_d)"
       id="g40"
       transform="translate(-0.80219799,-0.241758)">
      <ellipse
         rx="2.8975999"
         ry="2.9102399"
         transform="matrix(1,0,0,-1,12.9889,28.2026)"
         fill="#ffffff"
         id="ellipse16"
         cx="0"
         cy="0" />
      <ellipse
         rx="2.8975999"
         ry="2.9102399"
         transform="matrix(1,0,0,-1,41.4821,28.2026)"
         fill="#ffffff"
         id="ellipse18"
         cx="0"
         cy="0" />
      <g
         filter="url(#filter2_i)"
         id="g26">
        <path
           d="m 22.6477,34.5079 c 0,-1.6073 -1.2973,-2.9102 -2.8976,-2.9102 -1.6003,0 -2.8976,1.3029 -2.8976,2.9102 0,1.6073 1.2973,2.9102 2.8976,2.9102 1.6003,0 2.8976,-1.3029 2.8976,-2.9102 z"
           fill="#ffffff"
           id="path20" />
        <path
           d="m 22.6477,22.3819 c 0,-1.6073 -1.2973,-2.9102 -2.8976,-2.9102 -1.6003,0 -2.8976,1.3029 -2.8976,2.9102 0,1.6073 1.2973,2.9103 2.8976,2.9103 1.6003,0 2.8976,-1.303 2.8976,-2.9103 z"
           fill="#ffffff"
           id="path22" />
        <path
           d="M 18.7843,34.7504 H 20.716 V 23.1095 h -1.9317 z"
           fill="#ffffff"
           id="path24" />
      </g>
      <path
         d="m 37.136,34.5079 c 0,-1.6073 -1.2973,-2.9102 -2.8976,-2.9102 -1.6003,0 -2.8976,1.3029 -2.8976,2.9102 0,1.6073 1.2973,2.9102 2.8976,2.9102 1.6003,0 2.8976,-1.3029 2.8976,-2.9102 z"
         fill="#ffffff"
         id="path28" />
      <path
         d="m 37.136,22.3819 c 0,-1.6073 -1.2973,-2.9102 -2.8976,-2.9102 -1.6003,0 -2.8976,1.3029 -2.8976,2.9102 0,1.6073 1.2973,2.9103 2.8976,2.9103 1.6003,0 2.8976,-1.303 2.8976,-2.9103 z"
         fill="#ffffff"
         id="path30" />
      <path
         d="m 33.2726,34.7504 h 1.9317 V 23.1095 h -1.9317 z"
         fill="#ffffff"
         id="path32" />
      <path
         d="m 29.8919,27.7174 c 0,-1.6073 -1.2973,-2.9103 -2.8976,-2.9103 -1.6003,0 -2.8976,1.303 -2.8976,2.9103 0,1.6072 1.2973,2.9102 2.8976,2.9102 1.6003,0 2.8976,-1.303 2.8976,-2.9102 z"
         fill="#ffffff"
         id="path34" />
      <path
         d="m 29.8919,15.5914 c 0,-1.6073 -1.2973,-2.9102 -2.8976,-2.9102 -1.6003,0 -2.8976,1.3029 -2.8976,2.9102 0,1.6073 1.2973,2.9102 2.8976,2.9102 1.6003,0 2.8976,-1.3029 2.8976,-2.9102 z"
         fill="#ffffff"
         id="path36" />
      <path
         d="m 26.0284,27.9599 h 1.9317 v -11.641 h -1.9317 z"
         fill="#ffffff"
         id="path38" />
    </g>
  </g>
  <sodipodi:namedview
     id="namedview96"
     pagecolor="#ffffff"
     bordercolor="#666666"
     borderopacity="1.0"
     inkscape:showpageshadow="2"
     inkscape:pageopacity="0.0"
     inkscape:pagecheckerboard="0"
     inkscape:deskcolor="#d1d1d1"
     showgrid="false"
     inkscape:zoom="4.2592593"
     inkscape:cx="156.83478"
     inkscape:cy="71.491304"
     inkscape:window-width="3840"
     inkscape:window-height="1531"
     inkscape:window-x="0"
     inkscape:window-y="0"
     inkscape:window-maximized="1"
     inkscape:current-layer="svg94" />
  <defs
     id="defs92">
    <filter
       id="filter0_d"
       x="0.80219799"
       y="0.241758"
       width="52.747299"
       height="52.258202"
       filterUnits="userSpaceOnUse"
       color-interpolation-filters="sRGB">
      <feFlood
         flood-opacity="0"
         result="BackgroundImageFix"
         id="feFlood42" />
      <feColorMatrix
         in="SourceAlpha"
         type="matrix"
         values="0 0 0 0 0 0 0 0 0 0 0 0 0 0 0 0 0 0 127 0"
         id="feColorMatrix44" />
      <feOffset
         dy="0.43956"
         id="feOffset46" />
      <feGaussianBlur
         stdDeviation="1.0989"
         id="feGaussianBlur48" />
      <feColorMatrix
         type="matrix"
         values="0 0 0 0 0.195833 0 0 0 0 0.195833 0 0 0 0 0.195833 0 0 0 0.1 0"
         id="feColorMatrix50" />
      <feBlend
         mode="luminosity"
         in2="BackgroundImageFix"
         result="effect1_dropShadow"
         id="feBlend52" />
      <feBlend
         mode="normal"
         in="SourceGraphic"
         in2="effect1_dropShadow"
         result="shape"
         id="feBlend54" />
    </filter>
    <filter
       id="filter1_d"
       x="10.0913"
       y="12.6812"
       width="34.288399"
       height="25.6161"
       filterUnits="userSpaceOnUse"
       color-interpolation-filters="sRGB">
      <feFlood
         flood-opacity="0"
         result="BackgroundImageFix"
         id="feFlood57" />
      <feColorMatrix
         in="SourceAlpha"
         type="matrix"
         values="0 0 0 0 0 0 0 0 0 0 0 0 0 0 0 0 0 0 127 0"
         id="feColorMatrix59" />
      <feOffset
         dy="0.879121"
         id="feOffset61" />
      <feColorMatrix
         type="matrix"
         values="0 0 0 0 0.121458 0 0 0 0 0.361284 0 0 0 0 0.55 0 0 0 1 0"
         id="feColorMatrix63" />
      <feBlend
         mode="normal"
         in2="BackgroundImageFix"
         result="effect1_dropShadow"
         id="feBlend65" />
      <feBlend
         mode="normal"
         in="SourceGraphic"
         in2="effect1_dropShadow"
         result="shape"
         id="feBlend67" />
    </filter>
    <filter
       id="filter2_i"
       x="16.852501"
       y="19.471701"
       width="5.7951999"
       height="17.946501"
       filterUnits="userSpaceOnUse"
       color-interpolation-filters="sRGB">
      <feFlood
         flood-opacity="0"
         result="BackgroundImageFix"
         id="feFlood70" />
      <feBlend
         mode="normal"
         in="SourceGraphic"
         in2="BackgroundImageFix"
         result="shape"
         id="feBlend72" />
      <feColorMatrix
         in="SourceAlpha"
         type="matrix"
         values="0 0 0 0 0 0 0 0 0 0 0 0 0 0 0 0 0 0 127 0"
         result="hardAlpha"
         id="feColorMatrix74" />
      <feOffset
         id="feOffset76" />
      <feGaussianBlur
         stdDeviation="1.0989"
         id="feGaussianBlur78" />
      <feComposite
         in2="hardAlpha"
         operator="arithmetic"
         k2="-1"
         k3="1"
         id="feComposite80"
         k1="0"
         k4="0" />
      <feColorMatrix
         type="matrix"
         values="0 0 0 0 0.858333 0 0 0 0 0.858333 0 0 0 0 0.858333 0 0 0 0.5 0"
         id="feColorMatrix82" />
      <feBlend
         mode="luminosity"
         in2="shape"
         result="effect1_innerShadow"
         id="feBlend84" />
    </filter>
    <linearGradient
       id="paint0_linear"
       x1="27.1758"
       y1="2"
       x2="27.1758"
       y2="49.862598"
       gradientUnits="userSpaceOnUse"
       gradientTransform="translate(-0.80219799,-0.241758)">
      <stop
         stop-color="#50B6F5"
         id="stop87" />
      <stop
         offset="1"
         stop-color="#307BF1"
         id="stop89" />
    </linearGradient>
  </defs>
</svg>

<svg width="162" height="53" viewBox="0 0 162 53" fill="none" xmlns="http://www.w3.org/2000/svg">
<path d="M69.242 30.6952C69.4764 32.5999 70.0991 33.9699 71.1101 34.8051C72.1211 35.6256 73.3665 36.0358 74.8464 36.0358C75.916 36.0358 76.9489 35.86 77.9453 35.5084C78.9416 35.1567 79.9013 34.6879 80.8244 34.1018L83.6156 37.882C82.5167 38.8197 81.1834 39.5889 79.6156 40.1897C78.0625 40.7904 76.2896 41.0908 74.2969 41.0908C71.6302 41.0908 69.3958 40.5633 67.5936 39.5084C65.7914 38.4388 64.4361 36.9736 63.5277 35.1128C62.6193 33.252 62.165 31.1128 62.165 28.6952C62.165 26.3948 62.6046 24.3069 63.4837 22.4314C64.3628 20.5413 65.6449 19.0395 67.3299 17.9259C69.0295 16.7977 71.1028 16.2336 73.5497 16.2336C75.7768 16.2336 77.7035 16.7098 79.3299 17.6622C80.9709 18.6146 82.2383 19.9846 83.1321 21.7721C84.0405 23.5596 84.4947 25.7062 84.4947 28.2117C84.4947 28.6073 84.4801 29.0322 84.4508 29.4864C84.4361 29.9406 84.4068 30.3435 84.3628 30.6952H69.242ZM73.5497 20.893C72.3042 20.893 71.3006 21.3399 70.5387 22.2336C69.7768 23.1274 69.3152 24.556 69.154 26.5194H77.7255C77.7108 24.8197 77.3812 23.4571 76.7365 22.4314C76.0918 21.4058 75.0295 20.893 73.5497 20.893Z" fill="white"/>
<path d="M88.9171 40.3435V35.6842H91.994V21.6183H88.9171V17.0029H97.2907L98.5655 22.2556C99.4006 20.2483 100.463 18.7538 101.752 17.7721C103.056 16.7904 104.646 16.2996 106.521 16.2996C107.313 16.2996 108.016 16.3655 108.631 16.4974C109.247 16.6146 109.826 16.7831 110.368 17.0029L109.071 26.7611H104.719V22.4534C103.401 22.6878 102.243 23.4058 101.247 24.6073C100.25 25.7941 99.4812 27.2593 98.9391 29.0029V35.6842H103.554V40.3435H88.9171Z" fill="white"/>
<path d="M134.9 13.2666L136.526 18.3655C135.706 18.6878 134.746 18.9223 133.647 19.0688C132.548 19.2153 131.266 19.2886 129.801 19.2886C131.266 19.9186 132.38 20.7025 133.142 21.6402C133.918 22.5633 134.307 23.7794 134.307 25.2886C134.307 26.7977 133.904 28.1457 133.098 29.3325C132.292 30.5047 131.149 31.4278 129.669 32.1018C128.189 32.7758 126.438 33.1128 124.416 33.1128C123.449 33.1128 122.548 33.0248 121.713 32.849C121.2 33.1128 120.944 33.5596 120.944 34.1897C120.944 34.556 121.09 34.8856 121.383 35.1787C121.691 35.4717 122.402 35.6183 123.515 35.6183H127.339C130.05 35.6183 132.211 36.2556 133.823 37.5303C135.435 38.8051 136.241 40.4168 136.241 42.3655C136.241 44.7538 135.193 46.6366 133.098 48.0139C131.002 49.3911 127.889 50.0798 123.757 50.0798C120.768 50.0798 118.453 49.7721 116.812 49.1567C115.186 48.556 114.05 47.6915 113.405 46.5633C112.775 45.4498 112.46 44.1237 112.46 42.5853H118.614C118.614 43.2593 118.746 43.8087 119.01 44.2336C119.288 44.6732 119.808 44.9955 120.57 45.2007C121.347 45.4058 122.468 45.5084 123.933 45.5084C125.413 45.5084 126.541 45.3911 127.318 45.1567C128.094 44.9223 128.622 44.5999 128.9 44.1897C129.193 43.7941 129.339 43.3472 129.339 42.849C129.339 42.1604 129.068 41.6036 128.526 41.1787C127.984 40.7538 127.127 40.5413 125.955 40.5413H122.241C119.72 40.5413 117.889 40.0798 116.746 39.1567C115.603 38.219 115.032 37.1274 115.032 35.882C115.032 35.0175 115.259 34.197 115.713 33.4205C116.182 32.6439 116.834 31.9919 117.669 31.4644C116.175 30.6732 115.105 29.7428 114.46 28.6732C113.816 27.5889 113.493 26.2922 113.493 24.7831C113.493 23.0248 113.94 21.5157 114.834 20.2556C115.728 18.9809 116.959 17.9992 118.526 17.3106C120.109 16.6219 121.911 16.2776 123.933 16.2776C125.676 16.3069 127.193 16.1897 128.482 15.9259C129.772 15.6476 130.929 15.2739 131.955 14.8051C132.981 14.3215 133.962 13.8087 134.9 13.2666ZM124.109 20.7831C123.01 20.7831 122.138 21.1347 121.493 21.838C120.849 22.5267 120.526 23.4791 120.526 24.6952C120.526 25.9846 120.856 26.9736 121.515 27.6622C122.175 28.3509 123.039 28.6952 124.109 28.6952C126.482 28.6952 127.669 27.3325 127.669 24.6073C127.669 22.0578 126.482 20.7831 124.109 20.7831Z" fill="white"/>
<path d="M149.762 16.2336C152.165 16.2336 154.209 16.7465 155.894 17.7721C157.579 18.7977 158.868 20.241 159.762 22.1018C160.656 23.9479 161.103 26.1164 161.103 28.6073C161.103 32.5047 160.106 35.5596 158.114 37.7721C156.121 39.9846 153.337 41.0908 149.762 41.0908C146.187 41.0908 143.403 39.9992 141.41 37.8161C139.418 35.6329 138.421 32.578 138.421 28.6512C138.421 26.175 138.868 24.0065 139.762 22.1457C140.67 20.2849 141.967 18.8344 143.652 17.7941C145.352 16.7538 147.388 16.2336 149.762 16.2336ZM149.762 21.3545C148.341 21.3545 147.286 21.9406 146.597 23.1128C145.923 24.2703 145.586 26.1164 145.586 28.6512C145.586 31.23 145.923 33.0981 146.597 34.2556C147.286 35.4131 148.341 35.9919 149.762 35.9919C151.183 35.9919 152.231 35.4131 152.905 34.2556C153.593 33.0981 153.938 31.2153 153.938 28.6073C153.938 26.0871 153.593 24.2483 152.905 23.0908C152.231 21.9333 151.183 21.3545 149.762 21.3545Z" fill="white"/>
<ellipse cx="27.1758" cy="25.9313" rx="24.1758" ry="23.9313" fill="url(#paint0_linear)"/>
<g filter="url(#filter0_d)">
<path fill-rule="evenodd" clip-rule="evenodd" d="M27.1758 48.5863C39.8157 48.5863 50.0623 38.4433 50.0623 25.9313C50.0623 13.4193 39.8157 3.27634 27.1758 3.27634C14.536 3.27634 4.28938 13.4193 4.28938 25.9313C4.28938 38.4433 14.536 48.5863 27.1758 48.5863ZM27.1758 49.8626C40.5278 49.8626 51.3517 39.1482 51.3517 25.9313C51.3517 12.7144 40.5278 2 27.1758 2C13.8239 2 3 12.7144 3 25.9313C3 39.1482 13.8239 49.8626 27.1758 49.8626Z" fill="white"/>
</g>
<g filter="url(#filter1_d)">
<ellipse rx="2.8976" ry="2.91024" transform="matrix(1 0 0 -1 12.9889 28.2026)" fill="white"/>
<ellipse rx="2.8976" ry="2.91024" transform="matrix(1 0 0 -1 41.4821 28.2026)" fill="white"/>
<g filter="url(#filter2_i)">
<path d="M22.6477 34.5079C22.6477 32.9006 21.3504 31.5977 19.7501 31.5977C18.1498 31.5977 16.8525 32.9006 16.8525 34.5079C16.8525 36.1152 18.1498 37.4181 19.7501 37.4181C21.3504 37.4181 22.6477 36.1152 22.6477 34.5079Z" fill="white"/>
<path d="M22.6477 22.3819C22.6477 20.7746 21.3504 19.4717 19.7501 19.4717C18.1498 19.4717 16.8525 20.7746 16.8525 22.3819C16.8525 23.9892 18.1498 25.2922 19.7501 25.2922C21.3504 25.2922 22.6477 23.9892 22.6477 22.3819Z" fill="white"/>
<path d="M18.7843 34.7504H20.716V23.1095H18.7843V34.7504Z" fill="white"/>
</g>
<path d="M37.136 34.5079C37.136 32.9006 35.8387 31.5977 34.2384 31.5977C32.6381 31.5977 31.3408 32.9006 31.3408 34.5079C31.3408 36.1152 32.6381 37.4181 34.2384 37.4181C35.8387 37.4181 37.136 36.1152 37.136 34.5079Z" fill="white"/>
<path d="M37.136 22.3819C37.136 20.7746 35.8387 19.4717 34.2384 19.4717C32.6381 19.4717 31.3408 20.7746 31.3408 22.3819C31.3408 23.9892 32.6381 25.2922 34.2384 25.2922C35.8387 25.2922 37.136 23.9892 37.136 22.3819Z" fill="white"/>
<path d="M33.2726 34.7504H35.2043V23.1095H33.2726V34.7504Z" fill="white"/>
<path d="M29.8919 27.7174C29.8919 26.1101 28.5946 24.8071 26.9943 24.8071C25.394 24.8071 24.0967 26.1101 24.0967 27.7174C24.0967 29.3246 25.394 30.6276 26.9943 30.6276C28.5946 30.6276 29.8919 29.3246 29.8919 27.7174Z" fill="white"/>
<path d="M29.8919 15.5914C29.8919 13.9841 28.5946 12.6812 26.9943 12.6812C25.394 12.6812 24.0967 13.9841 24.0967 15.5914C24.0967 17.1987 25.394 18.5016 26.9943 18.5016C28.5946 18.5016 29.8919 17.1987 29.8919 15.5914Z" fill="white"/>
<path d="M26.0284 27.9599H27.9601V16.3189H26.0284V27.9599Z" fill="white"/>
</g>
<defs>
<filter id="filter0_d" x="0.802198" y="0.241758" width="52.7473" height="52.2582" filterUnits="userSpaceOnUse" color-interpolation-filters="sRGB">
<feFlood flood-opacity="0" result="BackgroundImageFix"/>
<feColorMatrix in="SourceAlpha" type="matrix" values="0 0 0 0 0 0 0 0 0 0 0 0 0 0 0 0 0 0 127 0"/>
<feOffset dy="0.43956"/>
<feGaussianBlur stdDeviation="1.0989"/>
<feColorMatrix type="matrix" values="0 0 0 0 0.195833 0 0 0 0 0.195833 0 0 0 0 0.195833 0 0 0 0.1 0"/>
<feBlend mode="luminosity" in2="BackgroundImageFix" result="effect1_dropShadow"/>
<feBlend mode="normal" in="SourceGraphic" in2="effect1_dropShadow" result="shape"/>
</filter>
<filter id="filter1_d" x="10.0913" y="12.6812" width="34.2884" height="25.6161" filterUnits="userSpaceOnUse" color-interpolation-filters="sRGB">
<feFlood flood-opacity="0" result="BackgroundImageFix"/>
<feColorMatrix in="SourceAlpha" type="matrix" values="0 0 0 0 0 0 0 0 0 0 0 0 0 0 0 0 0 0 127 0"/>
<feOffset dy="0.879121"/>
<feColorMatrix type="matrix" values="0 0 0 0 0.121458 0 0 0 0 0.361284 0 0 0 0 0.55 0 0 0 1 0"/>
<feBlend mode="normal" in2="BackgroundImageFix" result="effect1_dropShadow"/>
<feBlend mode="normal" in="SourceGraphic" in2="effect1_dropShadow" result="shape"/>
</filter>
<filter id="filter2_i" x="16.8525" y="19.4717" width="5.7952" height="17.9465" filterUnits="userSpaceOnUse" color-interpolation-filters="sRGB">
<feFlood flood-opacity="0" result="BackgroundImageFix"/>
<feBlend mode="normal" in="SourceGraphic" in2="BackgroundImageFix" result="shape"/>
<feColorMatrix in="SourceAlpha" type="matrix" values="0 0 0 0 0 0 0 0 0 0 0 0 0 0 0 0 0 0 127 0" result="hardAlpha"/>
<feOffset/>
<feGaussianBlur stdDeviation="1.0989"/>
<feComposite in2="hardAlpha" operator="arithmetic" k2="-1" k3="1"/>
<feColorMatrix type="matrix" values="0 0 0 0 0.858333 0 0 0 0 0.858333 0 0 0 0 0.858333 0 0 0 0.5 0"/>
<feBlend mode="luminosity" in2="shape" result="effect1_innerShadow"/>
</filter>
<linearGradient id="paint0_linear" x1="27.1758" y1="2" x2="27.1758" y2="49.8626" gradientUnits="userSpaceOnUse">
<stop stop-color="#50B6F5"/>
<stop offset="1" stop-color="#307BF1"/>
</linearGradient>
</defs>
</svg>
